images/card-bg-5.svg

<svg width="231" height="228" viewBox="0 0 231 228" fill="none" xmlns="http://www.w3.org/2000/svg">
<g filter="url(#filter0_d_9010_186154)">
<path d="M118.5 98L144.569 83.6522C144.547 84.0742 144.558 84.0692 144.569 83.6522C144.598 83.9102 145.983 82.2041 146.5 81.7391C145.137 80.9021 138.565 79.0976 127.19 76C121.37 90.0827 118.609 97.416 118.5 98ZM156.152 166.053C156.362 166.592 156.25 166.732 156.152 167C155.875 167.008 155.558 167.079 155.196 167C155.037 166.604 124.237 121.433 119.804 113.973C119.604 113.972 109.373 117.822 107.37 118.708C106.913 119.412 74.4007 164.247 73.8913 164.159C73.5783 163.795 86.0159 134.014 111.196 74.2035L60.5 64.7345C70.9503 62.6583 76.3723 61.6009 76.7609 61.8938C76.8838 61.6711 89.1294 61.1193 113.109 60C152.498 64.6766 171.484 69.9392 170.5 76.0973C168.926 84.5604 138.415 102.574 135.109 104.504C135.343 104.896 156.214 165.677 156.152 166.053Z" fill="#151B20" fill-opacity="0.01" shape-rendering="crispEdges"/>
</g>
<defs>
<filter id="filter0_d_9010_186154" x="0.5" y="0" width="230.036" height="227.037" filterUnits="userSpaceOnUse" color-interpolation-filters="sRGB">
<feFlood flood-opacity="0" result="BackgroundImageFix"/>
<feColorMatrix in="SourceAlpha" type="matrix" values="0 0 0 0 0 0 0 0 0 0 0 0 0 0 0 0 0 0 127 0" result="hardAlpha"/>
<feOffset/>
<feGaussianBlur stdDeviation="30"/>
<feComposite in2="hardAlpha" operator="out"/>
<feColorMatrix type="matrix" values="0 0 0 0 1 0 0 0 0 0.72549 0 0 0 0 0.388235 0 0 0 0.4 0"/>
<feBlend mode="normal" in2="BackgroundImageFix" result="effect1_dropShadow_9010_186154"/>
<feBlend mode="normal" in="SourceGraphic" in2="effect1_dropShadow_9010_186154" result="shape"/>
</filter>
</defs>
</svg>

<svg width="231" height="228" fill="none" xmlns="http://www.w3.org/2000/svg"><g filter="url(#filter0_d_9010_186154)"><path d="M118.5 98l26.069-14.348c-.022.422-.011.417 0 0 .029.258 1.414-1.448 1.931-1.913-1.363-.837-7.935-2.641-19.31-5.739-5.82 14.083-8.581 21.416-8.69 22zm37.652 68.053c.21.539.098.679 0 .947-.277.008-.594.079-.956 0-.159-.396-30.959-45.567-35.392-53.027-.2-.001-10.431 3.849-12.434 4.735-.457.704-32.97 45.539-33.479 45.451-.313-.364 12.125-30.145 37.305-89.955L60.5 64.734c10.45-2.076 15.872-3.133 16.26-2.84.124-.223 12.37-.775 36.349-1.894 39.389 4.677 58.375 9.94 57.391 16.097-1.574 8.463-32.085 26.477-35.391 28.407.234.392 21.105 61.173 21.043 61.549z" fill="#151B20" fill-opacity=".01" shape-rendering="crispEdges"/></g><defs><filter id="filter0_d_9010_186154" x=".5" y="0" width="230.036" height="227.037" filterUnits="userSpaceOnUse" color-interpolation-filters="sRGB"><feFlood flood-opacity="0" result="BackgroundImageFix"/><feColorMatrix in="SourceAlpha" values="0 0 0 0 0 0 0 0 0 0 0 0 0 0 0 0 0 0 127 0" result="hardAlpha"/><feOffset/><feGaussianBlur stdDeviation="30"/><feComposite in2="hardAlpha" operator="out"/><feColorMatrix values="0 0 0 0 1 0 0 0 0 0.72549 0 0 0 0 0.388235 0 0 0 0.4 0"/><feBlend in2="BackgroundImageFix" result="effect1_dropShadow_9010_186154"/><feBlend in="SourceGraphic" in2="effect1_dropShadow_9010_186154" result="shape"/></filter></defs></svg>
